tools/download-figma-icons/icons/action/linkedin.svg

<svg width="24" height="24" viewBox="0 0 24 24" fill="none" xmlns="http://www.w3.org/2000/svg">
<path fill-rule="evenodd" clip-rule="evenodd" d="M18.75 18.6888H15.7701V13.9769C15.7701 12.7531 15.345 11.9576 14.3111 11.9576C13.6415 11.9576 13.0334 12.3859 12.7907 13.059C12.7293 13.3038 12.6685 13.5486 12.6685 13.7934V18.75H9.75C9.75 18.75 9.81021 10.7337 9.75 9.9382H12.6685V11.1621C13.2165 10.2442 14.2497 9.69343 15.2835 9.75462C17.2296 9.75462 18.6898 11.0397 18.6898 13.7322V18.6888H18.75ZM6.80797 8.24587C5.99986 8.30579 5.30768 7.70662 5.25 6.86777V6.74794C5.25 5.90909 5.88449 5.25 6.69203 5.25H6.80797C7.61493 5.25 8.25 5.90909 8.25 6.74794C8.25 7.58678 7.67319 8.24587 6.80797 8.24587ZM5.25 18.75H8.25V9.75H5.25V18.75ZM20.34 2.25H3.65564C2.92226 2.25 2.25 2.85938 2.25 3.65156V20.3484C2.25 21.1406 2.92226 21.75 3.65564 21.75H20.34C21.1351 21.75 21.7462 21.1406 21.7462 20.3484V3.65156C21.8067 2.85938 21.1351 2.25 20.34 2.25C20.4017 2.25 20.4017 2.25 20.34 2.25Z" fill="black"/>
</svg>

<svg xmlns="http://www.w3.org/2000/svg" width="24" height="24" fill="none" viewBox="0 0 24 24"><path fill="currentColor" fill-rule="evenodd" d="M18.75 18.689h-2.98v-4.712c0-1.224-.425-2.02-1.459-2.02-.67 0-1.278.429-1.52 1.102-.062.245-.123.49-.123.734v4.957H9.75s.06-8.016 0-8.812h2.919v1.224c.547-.918 1.58-1.469 2.614-1.407 1.947 0 3.407 1.285 3.407 3.977v4.957zM6.808 8.246c-.808.06-1.5-.54-1.558-1.378v-.12c0-.839.634-1.498 1.442-1.498h.116c.807 0 1.442.66 1.442 1.498 0 .839-.577 1.498-1.442 1.498M5.25 18.75h3v-9h-3zm15.09-16.5H3.656c-.734 0-1.406.61-1.406 1.402v16.696c0 .793.672 1.402 1.406 1.402H20.34c.795 0 1.406-.61 1.406-1.402V3.652c.06-.793-.61-1.402-1.406-1.402q.093 0 0 0" clip-rule="evenodd"/></svg>
